pontoon/contributors/static/img/translation_champion_badge.svg

<svg width="79" height="79" viewBox="0 0 79 79" fill="none" xmlns="http://www.w3.org/2000/svg">
<rect width="78" height="78" transform="translate(0.120361 0.0499878)" fill="#7BC876"/>
<mask id="path-1-outside-1_147_4596" maskUnits="userSpaceOnUse" x="11.9097" y="13.4184" width="54" height="51" fill="black">
<rect fill="white" x="11.9097" y="13.4184" width="54" height="51"/>
<path fill-rule="evenodd" clip-rule="evenodd" d="M27.4079 22.5926V17.4184H32.582V22.5926H44.0797V27.7667H39.0636C38.9521 32.8256 36.9773 37.6724 33.5094 41.2893C33.067 41.7507 32.6046 42.1874 32.1245 42.5985C34.2522 44.2141 36.7744 45.1617 39.3943 45.3301L44.6731 33.4129H44.7164L44.7151 33.41H49.9943L62.0262 60.573L56.7472 60.5735L52.7995 51.6612H41.8691L37.9201 60.5763L32.6412 60.5758L37.1704 50.3508C33.5657 49.7427 30.1974 48.074 27.4725 45.5372C25.1235 46.5791 22.5705 47.1339 19.9566 47.1339V41.8833C21.3385 41.8833 22.7024 41.666 24.0055 41.2476C22.1358 38.1263 21.128 34.5059 21.128 30.7878H26.3785C26.3785 33.6259 27.166 36.3682 28.6021 38.7013C28.9901 38.3758 29.3632 38.0269 29.7194 37.6554C32.2305 35.0365 33.701 31.4996 33.8113 27.7667H15.9097V22.5926H27.4079ZM50.4438 46.3429L47.3343 39.3231L44.2249 46.3429H50.4438Z"/>
</mask>
<path fill-rule="evenodd" clip-rule="evenodd" d="M27.4079 22.5926V17.4184H32.582V22.5926H44.0797V27.7667H39.0636C38.9521 32.8256 36.9773 37.6724 33.5094 41.2893C33.067 41.7507 32.6046 42.1874 32.1245 42.5985C34.2522 44.2141 36.7744 45.1617 39.3943 45.3301L44.6731 33.4129H44.7164L44.7151 33.41H49.9943L62.0262 60.573L56.7472 60.5735L52.7995 51.6612H41.8691L37.9201 60.5763L32.6412 60.5758L37.1704 50.3508C33.5657 49.7427 30.1974 48.074 27.4725 45.5372C25.1235 46.5791 22.5705 47.1339 19.9566 47.1339V41.8833C21.3385 41.8833 22.7024 41.666 24.0055 41.2476C22.1358 38.1263 21.128 34.5059 21.128 30.7878H26.3785C26.3785 33.6259 27.166 36.3682 28.6021 38.7013C28.9901 38.3758 29.3632 38.0269 29.7194 37.6554C32.2305 35.0365 33.701 31.4996 33.8113 27.7667H15.9097V22.5926H27.4079ZM50.4438 46.3429L47.3343 39.3231L44.2249 46.3429H50.4438Z" fill="#272A2F"/>
<path d="M27.4079 17.4184V13.9944C25.5169 13.9944 23.9839 15.5274 23.9839 17.4184H27.4079ZM27.4079 22.5926V26.0165C29.2989 26.0165 30.8319 24.4836 30.8319 22.5926H27.4079ZM32.582 17.4184H36.0059C36.0059 15.5274 34.473 13.9944 32.582 13.9944V17.4184ZM32.582 22.5926H29.158C29.158 24.4836 30.691 26.0165 32.582 26.0165V22.5926ZM44.0797 22.5926H47.5036C47.5036 20.7015 45.9707 19.1686 44.0797 19.1686V22.5926ZM44.0797 27.7667V31.1907C45.9707 31.1907 47.5036 29.6577 47.5036 27.7667H44.0797ZM39.0636 27.7667V24.3427C37.2019 24.3427 35.6814 25.8301 35.6404 27.6913L39.0636 27.7667ZM33.5094 41.2893L31.0379 38.9196L31.0379 38.9196L33.5094 41.2893ZM32.1245 42.5985L29.8977 39.9976C29.1112 40.6709 28.6716 41.664 28.702 42.6989C28.7323 43.7338 29.2293 44.6994 30.054 45.3255L32.1245 42.5985ZM39.3943 45.3301L39.1747 48.747C40.6065 48.8391 41.9438 48.0287 42.5249 46.7168L39.3943 45.3301ZM44.6731 33.4129V29.9889C43.3185 29.9889 42.0912 30.7876 41.5425 32.0262L44.6731 33.4129ZM44.7164 33.4129V36.8369C45.8748 36.8369 46.9546 36.2512 47.5863 35.2802C48.2181 34.3093 48.3161 33.0848 47.8468 32.0258L44.7164 33.4129ZM44.7151 33.41V29.986C43.5568 29.986 42.4769 30.5717 41.8452 31.5426C41.2134 32.5136 41.1154 33.7381 41.5847 34.7971L44.7151 33.41ZM49.9943 33.41L53.1249 32.0233C52.5762 30.7847 51.3489 29.986 49.9943 29.986V33.41ZM62.0262 60.573L62.0265 63.997C63.1848 63.9969 64.2644 63.4112 64.8961 62.4404C65.5278 61.4696 65.6259 60.2453 65.1568 59.1863L62.0262 60.573ZM56.7472 60.5735L53.6166 61.9602C54.1653 63.1989 55.3928 63.9976 56.7475 63.9974L56.7472 60.5735ZM52.7995 51.6612L55.9301 50.2745C55.3815 49.0359 54.1542 48.2372 52.7995 48.2372V51.6612ZM41.8691 51.6612V48.2372C40.5145 48.2372 39.2872 49.0359 38.7385 50.2745L41.8691 51.6612ZM37.9201 60.5763L37.9198 64.0003C39.2746 64.0004 40.5021 63.2017 41.0507 61.963L37.9201 60.5763ZM32.6412 60.5758L29.5106 59.1891C29.0415 60.2481 29.1396 61.4725 29.7713 62.4433C30.403 63.4141 31.4826 63.9997 32.6409 63.9998L32.6412 60.5758ZM37.1704 50.3508L40.301 51.7375C40.7292 50.7708 40.6868 49.6605 40.1861 48.7293C39.6854 47.798 38.7825 47.1504 37.7399 46.9745L37.1704 50.3508ZM27.4725 45.5372L29.8055 43.0311C28.8019 42.0968 27.3377 41.8513 26.0842 42.4073L27.4725 45.5372ZM19.9566 47.1339H16.5326C16.5326 49.0249 18.0656 50.5578 19.9566 50.5578V47.1339ZM19.9566 41.8833V38.4593C18.0656 38.4593 16.5326 39.9923 16.5326 41.8833H19.9566ZM24.0055 41.2476L25.0523 44.5076C26.047 44.1882 26.8415 43.4321 27.2097 42.4544C27.5779 41.4767 27.4796 40.3844 26.9428 39.4881L24.0055 41.2476ZM21.128 30.7878V27.3638C19.2369 27.3638 17.704 28.8968 17.704 30.7878H21.128ZM26.3785 30.7878H29.8025C29.8025 28.8968 28.2695 27.3638 26.3785 27.3638V30.7878ZM28.6021 38.7013L25.6863 40.4962C26.208 41.3437 27.0726 41.9223 28.055 42.0813C29.0374 42.2403 30.0404 41.964 30.8028 41.3244L28.6021 38.7013ZM29.7194 37.6554L32.1909 40.0251L32.1909 40.0251L29.7194 37.6554ZM33.8113 27.7667L37.2337 27.8678C37.2611 26.9426 36.9127 26.0457 36.2679 25.3816C35.6231 24.7175 34.7369 24.3427 33.8113 24.3427V27.7667ZM15.9097 27.7667H12.4857C12.4857 29.6577 14.0187 31.1907 15.9097 31.1907V27.7667ZM15.9097 22.5926V19.1686C14.0187 19.1686 12.4857 20.7015 12.4857 22.5926H15.9097ZM47.3343 39.3231L50.4649 37.9363C49.9163 36.6978 48.689 35.8991 47.3343 35.8991C45.9797 35.8991 44.7524 36.6978 44.2037 37.9363L47.3343 39.3231ZM50.4438 46.3429V49.7668C51.6021 49.7668 52.6818 49.1812 53.3136 48.2104C53.9454 47.2396 54.0435 46.0152 53.5744 44.9562L50.4438 46.3429ZM44.2249 46.3429L41.0943 44.9562C40.6252 46.0152 40.7233 47.2396 41.3551 48.2104C41.9868 49.1812 43.0666 49.7668 44.2249 49.7668V46.3429ZM23.9839 17.4184V22.5926H30.8319V17.4184H23.9839ZM32.582 13.9944H27.4079V20.8424H32.582V13.9944ZM36.0059 22.5926V17.4184H29.158V22.5926H36.0059ZM44.0797 19.1686H32.582V26.0165H44.0797V19.1686ZM47.5036 27.7667V22.5926H40.6557V27.7667H47.5036ZM39.0636 31.1907H44.0797V24.3427H39.0636V31.1907ZM35.6404 27.6913C35.5474 31.9141 33.8984 35.9363 31.0379 38.9196L35.9809 43.659C40.0562 39.4086 42.3569 33.7372 42.4867 27.8421L35.6404 27.6913ZM31.0379 38.9196C30.6732 39.3 30.2925 39.6595 29.8977 39.9976L34.3513 45.1995C34.9167 44.7154 35.4607 44.2015 35.9809 43.659L31.0379 38.9196ZM39.6139 41.9132C37.6778 41.7888 35.797 41.0879 34.195 39.8715L30.054 45.3255C32.7075 47.3403 35.871 48.5347 39.1747 48.747L39.6139 41.9132ZM41.5425 32.0262L36.2637 43.9434L42.5249 46.7168L47.8037 34.7996L41.5425 32.0262ZM44.7164 29.9889H44.6731V36.8369H44.7164V29.9889ZM41.5847 34.7971L41.586 34.8L47.8468 32.0258L47.8455 32.0229L41.5847 34.7971ZM49.9943 29.986H44.7151V36.834H49.9943V29.986ZM65.1568 59.1863L53.1249 32.0233L46.8637 34.7967L58.8956 61.9597L65.1568 59.1863ZM56.7475 63.9974L62.0265 63.997L62.0259 57.149L56.7469 57.1495L56.7475 63.9974ZM49.6689 53.0479L53.6166 61.9602L59.8778 59.1867L55.9301 50.2745L49.6689 53.0479ZM41.8691 55.0851H52.7995V48.2372H41.8691V55.0851ZM41.0507 61.963L44.9997 53.0479L38.7385 50.2745L34.7895 59.1896L41.0507 61.963ZM32.6409 63.9998L37.9198 64.0003L37.9204 57.1523L32.6415 57.1519L32.6409 63.9998ZM34.0398 48.9641L29.5106 59.1891L35.7718 61.9626L40.301 51.7375L34.0398 48.9641ZM25.1394 48.0433C28.3469 51.0293 32.3259 53.0059 36.6009 53.7271L37.7399 46.9745C34.8056 46.4795 32.0479 45.1186 29.8055 43.0311L25.1394 48.0433ZM26.0842 42.4073C24.1648 43.2587 22.0841 43.7099 19.9566 43.7099V50.5578C23.0569 50.5578 26.0822 49.8995 28.8607 48.6671L26.0842 42.4073ZM23.3805 47.1339V41.8833H16.5326V47.1339H23.3805ZM19.9566 45.3073C21.6982 45.3073 23.415 45.0334 25.0523 44.5076L22.9586 37.9876C21.9897 38.2987 20.9789 38.4593 19.9566 38.4593V45.3073ZM17.704 30.7878C17.704 35.1228 18.8786 39.3517 21.0681 43.007L26.9428 39.4881C25.393 36.9009 24.5519 33.889 24.5519 30.7878H17.704ZM26.3785 27.3638H21.128V34.2118H26.3785V27.3638ZM31.518 36.9064C30.4153 35.1151 29.8025 32.9945 29.8025 30.7878H22.9546C22.9546 34.2573 23.9167 37.6214 25.6863 40.4962L31.518 36.9064ZM30.8028 41.3244C31.2857 40.9193 31.7492 40.4858 32.1909 40.0251L27.248 35.2857C26.9773 35.5681 26.6946 35.8323 26.4015 36.0782L30.8028 41.3244ZM32.1909 40.0251C35.3032 36.7792 37.099 32.4281 37.2337 27.8678L30.3888 27.6656C30.3029 30.5712 29.1579 33.2937 27.248 35.2857L32.1909 40.0251ZM15.9097 31.1907H33.8113V24.3427H15.9097V31.1907ZM12.4857 22.5926V27.7667H19.3336V22.5926H12.4857ZM27.4079 19.1686H15.9097V26.0165H27.4079V19.1686ZM44.2037 40.7098L47.3132 47.7296L53.5744 44.9562L50.4649 37.9363L44.2037 40.7098ZM47.3555 47.7296L50.4649 40.7098L44.2037 37.9363L41.0943 44.9562L47.3555 47.7296ZM50.4438 42.9189H44.2249V49.7668H50.4438V42.9189Z" fill="white" mask="url(#path-1-outside-1_147_4596)"/>
</svg>

<svg width="78" height="78" fill="none"
    xmlns="http://www.w3.org/2000/svg">
    <path fill="#7bc876" d="M.12.05h78v78h-78z"/>
    <mask id="a" maskUnits="userSpaceOnUse" x="11.91" y="13.418" width="54" height="51" fill="#000">
        <path fill="#fff" d="M11.91 13.418h54v51h-54z"/>
        <path fill-rule="evenodd" clip-rule="evenodd" d="M27.408 22.593v-5.175h5.174v5.175H44.08v5.174h-5.016c-.112 5.059-2.087 9.905-5.555 13.522-.442.462-.904.898-1.385 1.31a13.444 13.444 0 0 0 7.27 2.731l5.28-11.917h.042v-.003h5.278l12.032 27.163h-5.279L52.8 51.661H41.87l-3.95 8.915h-5.279l4.53-10.225c-3.605-.608-6.974-2.277-9.698-4.814a18.521 18.521 0 0 1-7.516 1.597v-5.25c1.382 0 2.745-.218 4.049-.636a20.371 20.371 0 0 1-2.878-10.46h5.25c0 2.838.788 5.58 2.224 7.913.388-.325.761-.674 1.117-1.046 2.511-2.619 3.982-6.155 4.092-9.888H15.91v-5.174zm23.036 23.75-3.11-7.02-3.11 7.02z"/>
    </mask>
    <path fill-rule="evenodd" clip-rule="evenodd" d="M27.408 22.593v-5.175h5.174v5.175H44.08v5.174h-5.016c-.112 5.059-2.087 9.905-5.555 13.522-.442.462-.904.898-1.385 1.31a13.444 13.444 0 0 0 7.27 2.731l5.28-11.917h.042v-.003h5.278l12.032 27.163h-5.279L52.8 51.661H41.87l-3.95 8.915h-5.279l4.53-10.225c-3.605-.608-6.974-2.277-9.698-4.814a18.521 18.521 0 0 1-7.516 1.597v-5.25c1.382 0 2.745-.218 4.049-.636a20.371 20.371 0 0 1-2.878-10.46h5.25c0 2.838.788 5.58 2.224 7.913.388-.325.761-.674 1.117-1.046 2.511-2.619 3.982-6.155 4.092-9.888H15.91v-5.174zm23.036 23.75-3.11-7.02-3.11 7.02z" fill="#272a2f"/>
    <path d="M27.408 17.418v-3.424a3.424 3.424 0 0 0-3.424 3.424zm0 5.175v3.423a3.424 3.424 0 0 0 3.424-3.423zm5.174-5.175h3.424a3.424 3.424 0 0 0-3.424-3.424zm0 5.175h-3.424a3.424 3.424 0 0 0 3.424 3.423zm11.498 0h3.424a3.424 3.424 0 0 0-3.424-3.424zm0 5.174v3.424a3.424 3.424 0 0 0 3.424-3.424zm-5.016 0v-3.424a3.424 3.424 0 0 0-3.424 3.348zm-5.555 13.522-2.471-2.37zm-1.385 1.31-2.226-2.601a3.424 3.424 0 0 0 .156 5.328zm7.27 2.731-.22 3.417a3.424 3.424 0 0 0 3.35-2.03zm5.28-11.917v-3.424a3.424 3.424 0 0 0-3.131 2.037zm.042 0v3.424a3.424 3.424 0 0 0 3.13-4.811zm0-.003v-3.424a3.424 3.424 0 0 0-3.131 4.811zm5.278 0 3.13-1.387a3.424 3.424 0 0 0-3.13-2.037zm12.032 27.163v3.424a3.424 3.424 0 0 0 3.13-4.81zm-5.279 0-3.13 1.387a3.424 3.424 0 0 0 3.13 2.037zM52.8 51.661l3.13-1.387a3.424 3.424 0 0 0-3.13-2.037zm-10.93 0v-3.424a3.424 3.424 0 0 0-3.131 2.037zm-3.95 8.915V64a3.424 3.424 0 0 0 3.13-2.037zm-5.279 0-3.13-1.387A3.424 3.424 0 0 0 32.64 64zm4.53-10.225 3.13 1.387a3.424 3.424 0 0 0-2.561-4.764zm-9.698-4.814 2.333-2.506a3.424 3.424 0 0 0-3.722-.624zm-7.516 1.597h-3.424a3.424 3.424 0 0 0 3.424 3.424zm0-5.25v-3.425a3.424 3.424 0 0 0-3.424 3.424zm4.049-.636 1.046 3.26a3.424 3.424 0 0 0 1.89-5.02zm-2.878-10.46v-3.424a3.424 3.424 0 0 0-3.424 3.424zm5.25 0h3.424a3.424 3.424 0 0 0-3.424-3.424zm2.224 7.913-2.916 1.795a3.424 3.424 0 0 0 5.117.828zm1.117-1.046 2.472 2.37zm4.092-9.888 3.423.1a3.424 3.424 0 0 0-3.423-3.524zm-17.901 0h-3.424a3.424 3.424 0 0 0 3.424 3.424zm0-5.174v-3.424a3.424 3.424 0 0 0-3.424 3.424zm31.424 16.73 3.13-1.387a3.424 3.424 0 0 0-6.26 0zm3.11 7.02v3.424a3.424 3.424 0 0 0 3.13-4.81zm-6.22 0-3.13-1.387a3.424 3.424 0 0 0 3.13 4.81zm-20.24-28.925v5.175h6.848v-5.175zm8.598-3.424h-5.174v6.848h5.174zm3.424 8.599v-5.175h-6.848v5.175zm8.074-3.424H32.582v6.847H44.08zm3.424 8.598v-5.174h-6.848v5.174zm-8.44 3.424h5.016v-6.848h-5.016zm-3.424-3.5c-.093 4.223-1.742 8.245-4.602 11.229l4.943 4.739c4.075-4.25 6.376-9.922 6.506-15.817zM31.038 38.92c-.365.38-.745.74-1.14 1.078L34.35 45.2c.566-.485 1.11-.998 1.63-1.541zm8.576 2.993a10.02 10.02 0 0 1-5.419-2.041l-4.141 5.454a16.87 16.87 0 0 0 9.12 3.421zm1.929-9.887-5.28 11.917 6.262 2.774L47.804 34.8zm3.173-2.037h-.043v6.848h.043zm-3.131 4.808.001.003 6.26-2.774v-.003zm8.41-4.81h-5.28v6.847h5.28zm15.162 29.2L53.125 32.022l-6.261 2.774L58.896 61.96zm-8.41 4.81h5.28l-.001-6.848h-5.28zm-7.078-10.95 3.948 8.913 6.26-2.773-3.947-8.912zm-7.8 2.038H52.8v-6.848H41.87Zm-.818 6.878L45 53.048l-6.261-2.774-3.95 8.916zM32.64 64h5.279v-6.848h-5.279zm1.399-15.036L29.51 59.19l6.262 2.774L40.3 51.738zm-8.9-.92c3.207 2.985 7.186 4.962 11.46 5.683l1.14-6.752c-2.934-.496-5.692-1.856-7.934-3.944zm.944-5.637c-1.92.852-4 1.303-6.127 1.303v6.848c3.1 0 6.125-.658 8.904-1.89zm-2.703 4.727v-5.25h-6.848v5.25zm-3.424-1.827c1.741 0 3.458-.274 5.095-.8l-2.093-6.52a9.812 9.812 0 0 1-3.002.472zm-2.253-14.52c0 4.336 1.175 8.565 3.364 12.22l5.875-3.519a16.948 16.948 0 0 1-2.391-8.7Zm8.675-3.423h-5.251v6.848h5.25zm5.139 9.542a11.685 11.685 0 0 1-1.716-6.118h-6.847c0 3.47.962 6.833 2.731 9.708zm-.715 4.418a17.54 17.54 0 0 0 1.388-1.299l-4.943-4.74c-.27.283-.553.547-.847.793zm1.388-1.299c3.112-3.246 4.908-7.597 5.043-12.157l-6.845-.202c-.086 2.905-1.231 5.628-3.141 7.62zM15.91 31.191H33.81v-6.848H15.91Zm-3.424-8.598v5.174h6.848v-5.174zm14.922-3.424H15.91v6.847h11.498zm16.796 21.54 3.11 7.02 6.26-2.773-3.11-7.02zm3.151 7.02 3.11-7.02-6.261-2.773-3.11 7.02zm3.089-4.81h-6.22v6.848h6.22z" fill="#fff" mask="url(#a)"/>
</svg>
